src/assets/images/error-illustration.svg

<svg width="180" height="154" viewBox="0 0 180 154" fill="none" xmlns="http://www.w3.org/2000/svg">
<path d="M147.694 153.917L18.0509 153.962C11.5379 153.964 5.70381 150.598 2.44538 144.959C0.815963 142.139 0.00107426 139.046 1.06092e-06 135.951C-0.00107214 132.858 0.81207 129.763 2.43915 126.943L67.2196 9.01343C70.4745 3.37152 76.3063 0.00225322 82.8193 1.12965e-06C89.3322 -0.00225096 95.1663 3.36298 98.4252 9.00264L163.296 126.902C164.921 129.714 165.733 132.804 165.734 135.896C165.734 138.988 164.921 142.082 163.293 144.903C160.039 150.545 154.207 153.915 147.694 153.917ZM1.62963 135.949C1.62942 138.766 15.9351 132.697 17.4172 135.262C20.3817 140.393 12.1249 152.338 18.0503 152.336C18.0503 152.336 158.924 149.223 161.885 144.091C163.365 141.525 164.105 138.709 164.104 135.895C164.103 133.08 163.361 130.266 161.879 127.7L97.0086 9.80148C94.0524 4.68573 88.7452 1.62401 82.8198 1.62606C76.8972 1.62811 1.62985 133.133 1.62963 135.949Z" fill="#3F3D56"/>
<path d="M120.649 127.909C153.428 127.909 180 101.337 180 68.5581C180 35.7794 153.428 9.20695 120.649 9.20695C87.8701 9.20695 61.2977 35.7794 61.2977 68.5581C61.2977 101.337 87.8701 127.909 120.649 127.909Z" fill="#F43F5E"/>
<path d="M120.66 104.941C123.669 104.941 126.109 102.501 126.109 99.4917C126.109 96.4821 123.669 94.0423 120.66 94.0423C117.65 94.0423 115.21 96.4821 115.21 99.4917C115.21 102.501 117.65 104.941 120.66 104.941Z" fill="white"/>
<path d="M120.636 32.175C120.136 35.5013 121.033 36.1973 121.038 50.5374C121.042 64.8775 124.018 84.1039 120.654 84.1051C117.29 84.1062 116.06 44.427 104.38 40.9152C90.6472 36.7862 122.257 21.4073 120.636 32.175Z" fill="white"/>
<path d="M21.6289 139.287C23.3086 139.392 24.2362 137.305 22.965 136.089L22.8384 135.586C22.855 135.546 22.8716 135.506 22.8884 135.466C23.8902 133.076 26.649 131.944 29.0442 132.934C36.6169 136.065 28.6217 143.26 29.2227 148.128C29.4334 149.808 36.0153 149.901 35.643 151.55C39.143 143.897 40.9833 135.542 40.9804 127.14C40.9796 125.029 40.8634 122.918 40.6264 120.812C40.4314 119.09 40.163 117.378 39.8158 115.682C37.938 106.514 33.8757 97.7827 28.0181 90.4908C25.2029 88.9531 26.9199 86.5474 25.5011 83.665C24.9914 82.6254 20.4457 82.602 20.2563 81.4626C20.4597 81.4892 23.3981 78.4373 22.4275 76.9286C21.7888 75.9358 21.9876 74.6714 22.8081 73.8227C22.8885 73.7395 22.9644 73.6517 23.0341 73.5572C25.4576 70.269 28.7985 70.8418 30.544 75.3085C34.2701 77.1875 34.3073 80.3058 32.0223 83.3056C30.5687 85.2142 30.3697 87.796 29.0944 89.8392C29.2257 90.0072 29.3623 90.1699 29.4937 90.3379C31.9022 93.4249 33.9855 96.7431 35.742 100.229C35.2446 96.3543 35.9754 91.6856 37.2229 88.6759C38.6533 85.2218 41.3446 82.3163 43.7018 79.3287C46.5171 75.7606 52.2471 77.3799 52.745 81.8975C52.7498 81.9409 52.7545 81.9842 52.7591 82.0276C52.4104 82.2245 52.0688 82.4336 51.7352 82.6544C49.8337 83.9131 50.4927 86.8614 52.7466 87.208L52.7976 87.2158C52.672 88.4709 48.2181 92.4247 47.9035 93.6484C50.9159 105.282 48.6619 106.817 39.3941 107.012L38.9078 107.705C39.786 110.23 40.4928 112.816 41.0236 115.435C41.5233 117.866 41.8707 120.323 42.0658 122.792C42.3085 125.905 42.2886 129.035 42.0271 132.144L42.0428 132.034C42.7085 128.61 44.5663 125.411 47.2647 123.194C51.2845 119.89 56.9649 118.671 61.3018 116.015C63.3895 114.736 66.0659 116.387 65.7023 118.808L65.6846 118.924C65.0388 119.186 64.4088 119.491 63.7997 119.833C63.4508 120.03 63.109 120.239 62.7751 120.46C60.8733 121.719 61.5328 124.668 63.7873 125.013L63.8383 125.021C63.8751 125.026 63.9066 125.032 63.9433 125.037C62.8362 127.668 52.2881 131.38 50.3564 133.486C48.478 143.647 49.4008 143.345 40.7539 140.389H40.7486C39.8048 144.506 38.4252 148.529 36.6515 152.363L22.0006 152.368C21.948 152.206 21.9007 152.037 21.8533 151.875C23.2082 151.958 24.5735 151.879 25.9072 151.632C24.8198 150.298 23.7323 148.954 22.6448 147.621C22.6186 147.595 22.5975 147.568 22.5765 147.542L22.56 147.522L21.0516 142.556C21.1706 141.455 21.3653 140.362 21.6289 139.287Z" fill="#E2E8F0"/>
</svg>

<svg xmlns="http://www.w3.org/2000/svg" width="180" height="154" fill="none"><path fill="#3F3D56" d="m147.694 153.917-129.643.045c-6.513.002-12.347-3.364-15.606-9.003-1.629-2.82-2.444-5.913-2.445-9.008-.001-3.093.812-6.188 2.44-9.008L67.22 9.013C70.475 3.372 76.306.003 82.82 0c6.512-.002 12.346 3.363 15.605 9.003l64.871 117.899c1.625 2.812 2.437 5.902 2.438 8.994 0 3.092-.813 6.186-2.441 9.007-3.254 5.642-9.086 9.012-15.599 9.014ZM1.63 135.949c0 2.817 14.305-3.252 15.787-.687 2.965 5.131-5.292 17.076.633 17.074 0 0 140.874-3.113 143.835-8.245 1.48-2.566 2.22-5.382 2.219-8.196-.001-2.815-.743-5.629-2.225-8.195L97.009 9.801c-2.957-5.115-8.264-8.177-14.19-8.175-5.922.002-81.19 131.507-81.19 134.323Z"/><path fill="#F43F5E" d="M120.649 127.909c32.779 0 59.351-26.572 59.351-59.35 0-32.78-26.572-59.352-59.351-59.352-32.779 0-59.351 26.572-59.351 59.351 0 32.779 26.572 59.351 59.351 59.351Z"/><path fill="#fff" d="M120.66 104.941a5.45 5.45 0 1 0-.001-10.9 5.45 5.45 0 0 0 .001 10.9ZM120.636 32.175c-.5 3.326.397 4.022.402 18.362.004 14.34 2.98 33.567-.384 33.568-3.364.001-4.594-39.678-16.274-43.19-13.733-4.129 17.877-19.508 16.256-8.74Z"/><path fill="#E2E8F0" d="M21.629 139.287c1.68.105 2.607-1.982 1.336-3.198l-.127-.503.05-.12a4.725 4.725 0 0 1 6.156-2.532c7.573 3.131-.422 10.326.179 15.194.21 1.68 6.792 1.773 6.42 3.422 3.5-7.653 5.34-16.008 5.337-24.41 0-2.111-.117-4.222-.354-6.328a58.266 58.266 0 0 0-.81-5.13c-1.878-9.168-5.94-17.9-11.798-25.191-2.815-1.538-1.098-3.944-2.517-6.826-.51-1.04-5.055-1.063-5.245-2.202.204.026 3.142-3.026 2.171-4.534-.638-.993-.44-2.258.381-3.106.08-.083.156-.171.226-.266 2.424-3.288 5.765-2.715 7.51 1.751 3.726 1.88 3.763 4.998 1.478 7.998-1.453 1.908-1.652 4.49-2.928 6.533.132.168.268.33.4.499a59.841 59.841 0 0 1 6.248 9.891c-.497-3.875.233-8.543 1.48-11.553 1.431-3.454 4.123-6.36 6.48-9.347 2.815-3.568 8.545-1.95 9.043 2.569l.014.13a17 17 0 0 0-1.024.626c-1.901 1.26-1.242 4.207 1.012 4.554l.05.008c-.125 1.255-4.579 5.209-4.893 6.432 3.012 11.634.758 13.169-8.51 13.364l-.486.693a59.557 59.557 0 0 1 2.116 7.73 60.02 60.02 0 0 1 1.042 7.357 57.915 57.915 0 0 1-.039 9.352l.016-.11c.666-3.424 2.523-6.623 5.222-8.84 4.02-3.304 9.7-4.523 14.037-7.179 2.087-1.279 4.764.372 4.4 2.793l-.017.116a16.604 16.604 0 0 0-2.91 1.536c-1.902 1.259-1.242 4.208 1.012 4.553l.051.008.105.016c-1.107 2.631-11.655 6.343-13.587 8.449-1.878 10.161-.955 9.859-9.602 6.903h-.005a61.052 61.052 0 0 1-4.098 11.974l-14.65.005c-.053-.162-.1-.331-.148-.493 1.355.083 2.72.004 4.054-.243-1.087-1.334-2.175-2.678-3.262-4.011-.026-.026-.047-.053-.069-.079l-.016-.02-1.508-4.966a25.03 25.03 0 0 1 .577-3.269Z"/></svg>
